; generated by PrusaSlicer 2.5.0+win64 on 2023-06-15 at 14:35:04 UTC


;
;

;
;
; 

; external perimeters extrusion width = 0.45mm
; perimeters extrusion width = 0.45mm
; infill extrusion width = 0.45mm
; solid infill extrusion width = 0.45mm
; top infill extrusion width = 0.40mm
; first layer extrusion width = 0.42mm

M73 P0 R121
M201 X2500 Y2500 Z400 E5000 ; sets maximum accelerations, mm/sec^2
M203 X180 Y180 Z12 E80 ; sets maximum feedrates, mm / sec
M204 P1250 R1250 T2500 ; sets acceleration (P, T) and retract acceleration (R), mm/sec^2
M205 X8.00 Y8.00 Z2.00 E10.00 ; sets the jerk limits, mm/sec
M205 S0 T0 ; sets the minimum extruding and travel feed rate, mm/sec
M107
;TYPE:Custom
M862.3 P "MINI" ; printer model check
G90 ; use absolute coordinates
M83 ; extruder relative mode
M104 S170 ; set extruder temp for bed leveling
M140 S60 ; set bed temp
M109 R170 ; wait for bed leveling temp
M190 S60 ; wait for bed temp
M204 T1250 ; set travel acceleration
G28 ; home all without mesh bed level
G29 ; mesh bed leveling 
M204 T2500 ; restore travel acceleration
M104 S215 ; set extruder temp
G92 E0
G1 Y-2 X179 F2400
G1 Z3 F720
M109 S215 ; wait for extruder temp

; intro line
G1 X170 F1000
G1 Z0.2 F720
G1 X110 E8 F900
G1 X40 E10 F700
G92 E0

M221 S95 ; set flow
G21 ; set units to millimeters
G90 ; use absolute coordinates
M83 ; use relative distances for extrusion
M900 K0.2 ; Filament gcode LA 1.5
; ; Filament gcode LA 1.0
M107
;LAYER_CHANGE
;Z:0.2
;HEIGHT:0.2
;BEFORE_LAYER_CHANGE
G92 E0.0
;0.2


G1 E-3.2 F4200
G1 Z.2 F720
;AFTER_LAYER_CHANGE
;0.2
G1 Z.4
G1 X42.74 Y26.318 F9000
G1 Z.2 F720
G1 E3.2 F2400
M204 P800
;TYPE:Skirt/Brim
;WIDTH:0.42
G1 F1200
G1 X43.785 Y25.442 E.04278
G1 X44.725 Y25.248 E.03008
G1 X135.275 Y25.248 E2.83913
G1 X136.582 Y25.64 E.04278
G1 X137.458 Y26.685 E.04278
G1 X137.652 Y27.625 E.03008
G1 X137.652 Y152.375 E3.91145
G1 X137.26 Y153.682 E.04278
G1 X136.215 Y154.558 E.04278
G1 X135.275 Y154.752 E.03008
G1 X44.725 Y154.752 E2.83913
G1 X43.418 Y154.36 E.04278
G1 X42.542 Y153.315 E.04278
G1 X42.348 Y152.375 E.03008
G1 X42.348 Y27.625 E3.91145
G1 X42.722 Y26.375 E.0409
M204 P1000
; printing object finito7.stl id:0 copy 0
G1 E-2.24 F4200
;WIPE_START
G1 F7200
G1 X43.785 Y25.442 E-.78411
G1 X44.011 Y25.395 E-.12789
;WIPE_END
G1 E-.048 F4200
G1 Z.4 F720
G1 X45.512 Y28.412 F9000
G1 Z.2 F720
G1 E3.2 F2400
M204 P800
;TYPE:Perimeter
;WIDTH:0.419999
G1 F1200
G1 X134.488 Y28.412 E2.78977
G1 X134.488 Y151.588 E3.86209
G1 X45.512 Y151.588 E2.78977
G1 X45.512 Y28.472 E3.8602
M204 P1000
M73 P0 R120
G1 X45.135 Y28.035 F9000
M204 P800
;TYPE:External perimeter
G1 F1200
G1 X134.865 Y28.035 E2.81342
G1 X134.865 Y151.965 E3.88573
G1 X45.135 Y151.965 E2.81342
G1 X45.135 Y28.095 E3.88385
M204 P1000
M73 P1 R120
G1 X45.515 Y28.159 F9000
G1 E-2.24 F4200
;WIPE_START
G1 F7200
G1 X46.781 Y28.094 E-.912
;WIPE_END
G1 E-.048 F4200
G1 Z.4 F720
G1 X133.612 Y28.525 F9000
G1 Z.2 F720
G1 E3.2 F2400
M204 P800
;TYPE:Solid infill
;WIDTH:0.420117
G1 F1200
G1 X134.205 Y29.118 E.0263
G1 X134.205 Y29.651 E.01673
G1 X133.249 Y28.695 E.04243
G1 X132.715 Y28.695 E.01673
G1 X134.205 Y30.185 E.06609
G1 X134.205 Y30.718 E.01673
G1 X132.182 Y28.695 E.08975
G1 X131.648 Y28.695 E.01673
G1 X134.205 Y31.252 E.11341
G1 X134.205 Y31.785 E.01673
G1 X131.115 Y28.695 E.13707
G1 X130.581 Y28.695 E.01673
G1 X134.205 Y32.319 E.16073
G1 X134.205 Y32.852 E.01673
G1 X130.048 Y28.695 E.18439
G1 X129.514 Y28.695 E.01673
G1 X134.205 Y33.386 E.20806
G1 X134.205 Y33.919 E.01673
G1 X128.981 Y28.695 E.23172
G1 X128.448 Y28.695 E.01673
G1 X134.205 Y34.452 E.25538
G1 X134.205 Y34.986 E.01673
G1 X127.914 Y28.695 E.27904
G1 X127.381 Y28.695 E.01673
G1 X134.205 Y35.519 E.3027
G1 X134.205 Y36.053 E.01673
G1 X126.847 Y28.695 E.32636
G1 X126.314 Y28.695 E.01673
G1 X134.205 Y36.586 E.35002
G1 X134.205 Y37.12 E.01673
G1 X125.78 Y28.695 E.37368
G1 X125.247 Y28.695 E.01673
G1 X134.205 Y37.653 E.39734
G1 X134.205 Y38.186 E.01673
G1 X124.714 Y28.695 E.421
G1 X124.18 Y28.695 E.01673
G1 X134.205 Y38.72 E.44466
G1 X134.205 Y39.253 E.01673
G1 X123.647 Y28.695 E.46833
G1 X123.113 Y28.695 E.01673
G1 X134.205 Y39.787 E.49199
G1 X134.205 Y40.32 E.01673
G1 X122.58 Y28.695 E.51565
G1 X122.046 Y28.695 E.01673
G1 X134.205 Y40.854 E.53931
G1 X134.205 Y41.387 E.01673
G1 X121.513 Y28.695 E.56297
G1 X120.979 Y28.695 E.01673
G1 X134.205 Y41.921 E.58663
G1 X134.205 Y42.454 E.01673
G1 X120.446 Y28.695 E.61029
G1 X119.913 Y28.695 E.01673
G1 X134.205 Y42.987 E.63395
G1 X134.205 Y43.521 E.01673
G1 X119.379 Y28.695 E.65761
G1 X118.846 Y28.695 E.01673
G1 X134.205 Y44.054 E.68127
G1 X134.205 Y44.588 E.01673
G1 X118.312 Y28.695 E.70493
G1 X117.779 Y28.695 E.01673
G1 X134.205 Y45.121 E.72859
G1 X134.205 Y45.655 E.01673
G1 X117.245 Y28.695 E.75226
G1 X116.712 Y28.695 E.01673
G1 X134.205 Y46.188 E.77592
G1 X134.205 Y46.721 E.01673
G1 X116.179 Y28.695 E.79958
G1 X115.645 Y28.695 E.01673
G1 X134.205 Y47.255 E.82324
G1 X134.205 Y47.788 E.01673
G1 X115.112 Y28.695 E.8469
G1 X114.578 Y28.695 E.01673
G1 X134.205 Y48.322 E.87056
G1 X134.205 Y48.855 E.01673
G1 X114.045 Y28.695 E.89422
G1 X113.511 Y28.695 E.01673
G1 X134.205 Y49.389 E.91788
G1 X134.205 Y49.922 E.01673
M73 P1 R119
G1 X112.978 Y28.695 E.94154
G1 X112.444 Y28.695 E.01673
G1 X134.205 Y50.456 E.9652
G1 X134.205 Y50.989 E.01673
G1 X111.911 Y28.695 E.98886
G1 X111.378 Y28.695 E.01673
G1 X134.205 Y51.522 E1.01252
G1 X134.205 Y52.056 E.01673
G1 X110.844 Y28.695 E1.03619
G1 X110.311 Y28.695 E.01673
G1 X134.205 Y52.589 E1.05985
G1 X134.205 Y53.123 E.01673
G1 X109.777 Y28.695 E1.08351
G1 X109.244 Y28.695 E.01673
G1 X134.205 Y53.656 E1.10717
G1 X134.205 Y54.19 E.01673
G1 X108.71 Y28.695 E1.13083
G1 X108.177 Y28.695 E.01673
G1 X134.205 Y54.723 E1.15449
G1 X134.205 Y55.256 E.01673
G1 X107.644 Y28.695 E1.17815
G1 X107.11 Y28.695 E.01673
G1 X134.205 Y55.79 E1.20181
G1 X134.205 Y56.323 E.01673
G1 X106.577 Y28.695 E1.22547
G1 X106.043 Y28.695 E.01673
G1 X134.205 Y56.857 E1.24913
G1 X134.205 Y57.39 E.01673
G1 X105.51 Y28.695 E1.27279
G1 X104.976 Y28.695 E.01673
G1 X134.205 Y57.924 E1.29646
G1 X134.205 Y58.457 E.01673
G1 X104.443 Y28.695 E1.32012
G1 X103.909 Y28.695 E.01673
G1 X134.205 Y58.991 E1.34378
G1 X134.205 Y59.524 E.01673
M73 P2 R119
G1 X103.376 Y28.695 E1.36744
G1 X102.843 Y28.695 E.01673
G1 X134.205 Y60.057 E1.3911
G1 X134.205 Y60.591 E.01673
G1 X102.309 Y28.695 E1.41476
G1 X101.776 Y28.695 E.01673
G1 X134.205 Y61.124 E1.43842
G1 X134.205 Y61.658 E.01673
G1 X101.242 Y28.695 E1.46208
G1 X100.709 Y28.695 E.01673
G1 X134.205 Y62.191 E1.48574
G1 X134.205 Y62.725 E.01673
G1 X100.175 Y28.695 E1.5094
G1 X99.642 Y28.695 E.01673
G1 X134.205 Y63.258 E1.53306
G1 X134.205 Y63.791 E.01673
G1 X99.109 Y28.695 E1.55672
G1 X98.575 Y28.695 E.01673
G1 X134.205 Y64.325 E1.58039
G1 X134.205 Y64.858 E.01673
G1 X98.042 Y28.695 E1.60405
G1 X97.508 Y28.695 E.01673
M73 P2 R118
G1 X134.205 Y65.392 E1.62771
G1 X134.205 Y65.925 E.01673
G1 X96.975 Y28.695 E1.65137
G1 X96.441 Y28.695 E.01673
G1 X134.205 Y66.459 E1.67503
G1 X134.205 Y66.992 E.01673
G1 X95.908 Y28.695 E1.69869
G1 X95.375 Y28.695 E.01673
G1 X134.205 Y67.525 E1.72235
G1 X134.205 Y68.059 E.01673
G1 X94.841 Y28.695 E1.74601
G1 X94.308 Y28.695 E.01673
G1 X134.205 Y68.592 E1.76967
G1 X134.205 Y69.126 E.01673
G1 X93.774 Y28.695 E1.79333
G1 X93.241 Y28.695 E.01673
G1 X134.205 Y69.659 E1.81699
G1 X134.205 Y70.193 E.01673
G1 X92.707 Y28.695 E1.84065
G1 X92.174 Y28.695 E.01673
G1 X134.205 Y70.726 E1.86432
G1 X134.205 Y71.26 E.01673
G1 X91.64 Y28.695 E1.88798
G1 X91.107 Y28.695 E.01673
G1 X134.205 Y71.793 E1.91164
G1 X134.205 Y72.326 E.01673
G1 X90.574 Y28.695 E1.9353
G1 X90.04 Y28.695 E.01673
G1 X134.205 Y72.86 E1.95896
G1 X134.205 Y73.393 E.01673
G1 X89.507 Y28.695 E1.98262
G1 X88.973 Y28.695 E.01673
M73 P3 R118
G1 X134.205 Y73.927 E2.00628
G1 X134.205 Y74.46 E.01673
G1 X88.44 Y28.695 E2.02994
G1 X87.906 Y28.695 E.01673
G1 X134.205 Y74.994 E2.0536
G1 X134.205 Y75.527 E.01673
G1 X87.373 Y28.695 E2.07726
G1 X86.84 Y28.695 E.01673
M73 P3 R117
G1 X134.205 Y76.06 E2.10092
G1 X134.205 Y76.594 E.01673
G1 X86.306 Y28.695 E2.12459
G1 X85.773 Y28.695 E.01673
G1 X134.205 Y77.127 E2.14825
G1 X134.205 Y77.661 E.01673
G1 X85.239 Y28.695 E2.17191
G1 X84.706 Y28.695 E.01673
G1 X134.205 Y78.194 E2.19557
G1 X134.205 Y78.728 E.01673
G1 X84.172 Y28.695 E2.21923
G1 X83.639 Y28.695 E.01673
G1 X134.205 Y79.261 E2.24289
G1 X134.205 Y79.795 E.01673
G1 X83.105 Y28.695 E2.26655
G1 X82.572 Y28.695 E.01673
G1 X134.205 Y80.328 E2.29021
G1 X134.205 Y80.861 E.01673
G1 X82.039 Y28.695 E2.31387
G1 X81.505 Y28.695 E.01673
G1 X134.205 Y81.395 E2.33753
G1 X134.205 Y81.928 E.01673
G1 X80.972 Y28.695 E2.36119
G1 X80.438 Y28.695 E.01673
G1 X134.205 Y82.462 E2.38485
G1 X134.205 Y82.995 E.01673
G1 X79.905 Y28.695 E2.40852
G1 X79.371 Y28.695 E.01673
G1 X134.205 Y83.529 E2.43218
G1 X134.205 Y84.062 E.01673
G1 X78.838 Y28.695 E2.45584
G1 X78.305 Y28.695 E.01673
G1 X134.205 Y84.595 E2.4795
G1 X134.205 Y85.129 E.01673
M73 P4 R116
G1 X77.771 Y28.695 E2.50316
G1 X77.238 Y28.695 E.01673
G1 X134.205 Y85.662 E2.52682
G1 X134.205 Y86.196 E.01673
G1 X76.704 Y28.695 E2.55048
G1 X76.171 Y28.695 E.01673
G1 X134.205 Y86.729 E2.57414
G1 X134.205 Y87.263 E.01673
G1 X75.637 Y28.695 E2.5978
G1 X75.104 Y28.695 E.01673
G1 X134.205 Y87.796 E2.62146
G1 X134.205 Y88.33 E.01673
G1 X74.57 Y28.695 E2.64512
G1 X74.037 Y28.695 E.01673
G1 X134.205 Y88.863 E2.66878
G1 X134.205 Y89.396 E.01673
G1 X73.504 Y28.695 E2.69245
G1 X72.97 Y28.695 E.01673
G1 X134.205 Y89.93 E2.71611
G1 X134.205 Y90.463 E.01673
G1 X72.437 Y28.695 E2.73977
G1 X71.903 Y28.695 E.01673
G1 X134.205 Y90.997 E2.76343
G1 X134.205 Y91.53 E.01673
G1 X71.37 Y28.695 E2.78709
G1 X70.836 Y28.695 E.01673
G1 X134.205 Y92.064 E2.81075
G1 X134.205 Y92.597 E.01673
M73 P4 R115
G1 X70.303 Y28.695 E2.83441
G1 X69.77 Y28.695 E.01673
G1 X134.205 Y93.13 E2.85807
G1 X134.205 Y93.664 E.01673
G1 X69.236 Y28.695 E2.88173
G1 X68.703 Y28.695 E.01673
M73 P5 R115
G1 X134.205 Y94.197 E2.90539
G1 X134.205 Y94.731 E.01673
G1 X68.169 Y28.695 E2.92905
G1 X67.636 Y28.695 E.01673
G1 X134.205 Y95.264 E2.95272
G1 X134.205 Y95.798 E.01673
G1 X67.102 Y28.695 E2.97638
G1 X66.569 Y28.695 E.01673
G1 X134.205 Y96.331 E3.00004
G1 X134.205 Y96.865 E.01673
G1 X66.035 Y28.695 E3.0237
G1 X65.502 Y28.695 E.01673
G1 X134.205 Y97.398 E3.04736
G1 X134.205 Y97.931 E.01673
G1 X64.969 Y28.695 E3.07102
G1 X64.435 Y28.695 E.01673
G1 X134.205 Y98.465 E3.09468
G1 X134.205 Y98.998 E.01673
G1 X63.902 Y28.695 E3.11834
M73 P5 R114
G1 X63.368 Y28.695 E.01673
G1 X134.205 Y99.532 E3.142
G1 X134.205 Y100.065 E.01673
G1 X62.835 Y28.695 E3.16566
G1 X62.301 Y28.695 E.01673
G1 X134.205 Y100.599 E3.18932
G1 X134.205 Y101.132 E.01673
G1 X61.768 Y28.695 E3.21298
G1 X61.235 Y28.695 E.01673
G1 X134.205 Y101.665 E3.23665
G1 X134.205 Y102.199 E.01673
M73 P6 R114
G1 X60.701 Y28.695 E3.26031
G1 X60.168 Y28.695 E.01673
G1 X134.205 Y102.732 E3.28397
G1 X134.205 Y103.266 E.01673
G1 X59.634 Y28.695 E3.30763
G1 X59.101 Y28.695 E.01673
G1 X134.205 Y103.799 E3.33129
G1 X134.205 Y104.333 E.01673
G1 X58.567 Y28.695 E3.35495
G1 X58.034 Y28.695 E.01673
G1 X134.205 Y104.866 E3.37861
G1 X134.205 Y105.4 E.01673
M73 P6 R113
G1 X57.5 Y28.695 E3.40227
G1 X56.967 Y28.695 E.01673
G1 X134.205 Y105.933 E3.42593
G1 X134.205 Y106.466 E.01673
G1 X56.434 Y28.695 E3.44959
G1 X55.9 Y28.695 E.01673
G1 X134.205 Y107 E3.47325
G1 X134.205 Y107.533 E.01673
G1 X55.367 Y28.695 E3.49691
G1 X54.833 Y28.695 E.01673
G1 X134.205 Y108.067 E3.52058
G1 X134.205 Y108.6 E.01673
G1 X54.3 Y28.695 E3.54424
G1 X53.766 Y28.695 E.01673
M73 P7 R113
G1 X134.205 Y109.134 E3.5679
G1 X134.205 Y109.667 E.01673
G1 X53.233 Y28.695 E3.59156
G1 X52.7 Y28.695 E.01673
G1 X134.205 Y110.2 E3.61522
G1 X134.205 Y110.734 E.01673
G1 X52.166 Y28.695 E3.63888
G1 X51.633 Y28.695 E.01673
M73 P7 R112
G1 X134.205 Y111.267 E3.66254
G1 X134.205 Y111.801 E.01673
G1 X51.099 Y28.695 E3.6862
G1 X50.566 Y28.695 E.01673
G1 X134.205 Y112.334 E3.70986
G1 X134.205 Y112.868 E.01673
G1 X50.032 Y28.695 E3.73352
G1 X49.499 Y28.695 E.01673
G1 X134.205 Y113.401 E3.75718
G1 X134.205 Y113.935 E.01673
G1 X48.965 Y28.695 E3.78085
G1 X48.432 Y28.695 E.01673
G1 X134.205 Y114.468 E3.80451
G1 X134.205 Y115.001 E.01673
G1 X47.899 Y28.695 E3.82817
G1 X47.365 Y28.695 E.01673
M73 P8 R112
G1 X134.205 Y115.535 E3.85183
G1 X134.205 Y116.068 E.01673
G1 X46.832 Y28.695 E3.87549
G1 X46.298 Y28.695 E.01673
M73 P8 R111
G1 X134.205 Y116.602 E3.89915
G1 X134.205 Y117.135 E.01673
G1 X45.795 Y28.725 E3.92148
G1 X45.795 Y29.258 E.01673
G1 X134.205 Y117.669 E3.92148
G1 X134.205 Y118.202 E.01673
G1 X45.795 Y29.792 E3.92148
G1 X45.795 Y30.325 E.01673
G1 X134.205 Y118.735 E3.92148
G1 X134.205 Y119.269 E.01673
G1 X45.795 Y30.859 E3.92148
G1 X45.795 Y31.392 E.01673
G1 X134.205 Y119.802 E3.92148
G1 X134.205 Y120.336 E.01673
G1 X45.795 Y31.926 E3.92148
G1 X45.795 Y32.459 E.01673
G1 X134.205 Y120.869 E3.92148
G1 X134.205 Y121.403 E.01673
M73 P8 R110
G1 X45.795 Y32.992 E3.92148
G1 X45.795 Y33.526 E.01673
M73 P9 R110
G1 X134.205 Y121.936 E3.92148
G1 X134.205 Y122.47 E.01673
G1 X45.795 Y34.059 E3.92148
G1 X45.795 Y34.593 E.01673
G1 X134.205 Y123.003 E3.92148
G1 X134.205 Y123.536 E.01673
G1 X45.795 Y35.126 E3.92148
G1 X45.795 Y35.66 E.01673
G1 X134.205 Y124.07 E3.92148
G1 X134.205 Y124.603 E.01673
G1 X45.795 Y36.193 E3.92148
G1 X45.795 Y36.726 E.01673
G1 X134.205 Y125.137 E3.92148
G1 X134.205 Y125.67 E.01673
G1 X45.795 Y37.26 E3.92148
G1 X45.795 Y37.793 E.01673
G1 X134.205 Y126.204 E3.92148
G1 X134.205 Y126.737 E.01673
M73 P9 R109
G1 X45.795 Y38.327 E3.92148
G1 X45.795 Y38.86 E.01673
G1 X134.205 Y127.27 E3.92148
G1 X134.205 Y127.804 E.01673
G1 X45.795 Y39.394 E3.92148
G1 X45.795 Y39.927 E.01673
M73 P10 R109
G1 X134.205 Y128.337 E3.92148
G1 X134.205 Y128.871 E.01673
G1 X45.795 Y40.461 E3.92148
G1 X45.795 Y40.994 E.01673
G1 X134.205 Y129.404 E3.92148
G1 X134.205 Y129.938 E.01673
G1 X45.795 Y41.527 E3.92148
G1 X45.795 Y42.061 E.01673
G1 X134.205 Y130.471 E3.92148
G1 X134.205 Y131.005 E.01673
G1 X45.795 Y42.594 E3.92148
G1 X45.795 Y43.128 E.01673
M73 P10 R108
G1 X134.205 Y131.538 E3.92148
G1 X134.205 Y132.071 E.01673
G1 X45.795 Y43.661 E3.92148
G1 X45.795 Y44.195 E.01673
G1 X134.205 Y132.605 E3.92148
G1 X134.205 Y133.138 E.01673
G1 X45.795 Y44.728 E3.92148
G1 X45.795 Y45.261 E.01673
G1 X134.205 Y133.672 E3.92148
G1 X134.205 Y134.205 E.01673
M73 P11 R108
G1 X45.795 Y45.795 E3.92148
G1 X45.795 Y46.328 E.01673
G1 X134.205 Y134.739 E3.92148
G1 X134.205 Y135.272 E.01673
G1 X45.795 Y46.862 E3.92148
G1 X45.795 Y47.395 E.01673
G1 X134.205 Y135.805 E3.92148
G1 X134.205 Y136.339 E.01673
G1 X45.795 Y47.929 E3.92148
G1 X45.795 Y48.462 E.01673
M73 P11 R107
G1 X134.205 Y136.872 E3.92148
G1 X134.205 Y137.406 E.01673
G1 X45.795 Y48.996 E3.92148
G1 X45.795 Y49.529 E.01673
G1 X134.205 Y137.939 E3.92148
G1 X134.205 Y138.473 E.01673
G1 X45.795 Y50.062 E3.92148
G1 X45.795 Y50.596 E.01673
G1 X134.205 Y139.006 E3.92148
G1 X134.205 Y139.54 E.01673
G1 X45.795 Y51.129 E3.92148
G1 X45.795 Y51.663 E.01673
G1 X134.205 Y140.073 E3.92148
G1 X134.205 Y140.606 E.01673
M73 P12 R107
G1 X45.795 Y52.196 E3.92148
G1 X45.795 Y52.73 E.01673
G1 X134.205 Y141.14 E3.92148
G1 X134.205 Y141.673 E.01673
M73 P12 R106
G1 X45.795 Y53.263 E3.92148
G1 X45.795 Y53.796 E.01673
G1 X134.205 Y142.207 E3.92148
G1 X134.205 Y142.74 E.01673
G1 X45.795 Y54.33 E3.92148
G1 X45.795 Y54.863 E.01673
G1 X134.205 Y143.274 E3.92148
G1 X134.205 Y143.807 E.01673
G1 X45.795 Y55.397 E3.92148
G1 X45.795 Y55.93 E.01673
G1 X134.205 Y144.34 E3.92148
G1 X134.205 Y144.874 E.01673
G1 X45.795 Y56.464 E3.92148
G1 X45.795 Y56.997 E.01673
G1 X134.205 Y145.407 E3.92148
G1 X134.205 Y145.941 E.01673
G1 X45.795 Y57.531 E3.92148
G1 X45.795 Y58.064 E.01673
G1 X134.205 Y146.474 E3.92148
G1 X134.205 Y147.008 E.01673
M73 P13 R105
G1 X45.795 Y58.597 E3.92148
G1 X45.795 Y59.131 E.01673
G1 X134.205 Y147.541 E3.92148
G1 X134.205 Y148.075 E.01673
G1 X45.795 Y59.664 E3.92148
G1 X45.795 Y60.198 E.01673
G1 X134.205 Y148.608 E3.92148
G1 X134.205 Y149.141 E.01673
G1 X45.795 Y60.731 E3.92148
G1 X45.795 Y61.265 E.01673
